X:1
T:Hin och Bonden
R:vals
S:efter Lars Vilhelm Johansson, Lima
D:Perjos Lars Halvarsson och Mattias Helje
Z:id:hn-vals-1 Henrik Norbeck <henrik.norbeck@mailbox.swipnet.SE>
M:3/4
L:1/8
K:G
BBd | dcBcAF | D2FAc2 | cBBdAF | G2Bdg2 | d>cBcAF | D2FAc2 | cBBdAF | G3 :|
|: Bdg | b3agf | g3fed | cBcedc | A3Bcd | e4d2 | dccecA | G3 :|
